COLOR/status 16/16/media-playlist-shuffle.svg

<svg height="16" width="16" xmlns="http://www.w3.org/2000/svg"><path d="m10.277344.85351562v.78710938 1.3691406h-.4355471c-1.7486134 0-3.0513111.6716265-3.8886719 1.6542969-.5839844.9707031-.5839844.9707031-.5839844.9707031l-.1171875-.2285156c-.1173136-.2304819-.2484821-.4525818-.3945312-.6660156l-.00391-.00391-.00195-.00195c-.6963243-.9876869-1.8570951-1.7246088-3.4179681-1.7246088h-1.4335938v.5 1.4355469h1.4335938c1.0374752 0 1.4035262.282352 1.8378906.9003906.2026078.288083.3865434.6718348.5605468 1.1113281l.4472657 1.1328126c-.3214506.9624429-.6228708 1.8791055-1.0078125 2.4257812-.4333287.617741-.7993845.902344-1.8378906.902344h-1.4335938v1.933593h1.4335938c1.5614873 0 2.7225484-.73461 3.4179687-1.724609.4394531-.884765.4394531-.884765.4394531-.884765l.1367188.224609c.1531302.250213.3249741.497558.5253906.732422.83668.983097 2.1400584 1.652343 3.8886719 1.652343h.4375001v2.148438l.707031-.324219c.721098-.330186 1.45516-.698382 2.201172-1.105469h.002c.738814-.406773 1.449368-.828736 2.134766-1.261718l.675734-.427735-.679688-.419921c-.68487-.425092-1.393767-.842223-2.130859-1.248047h-.002c-.721244-.394123-1.453411-.7654592-2.197219-1.1152348l-.71289-.3359374v2.1562502h-.4355471c-1.304026 0-1.8938836-.36036-2.4160157-.972657-.2515155-.29543-.5316538-.7380658-.7680879-1.126061-.1642676-.269568-.4506621-.8329229-.4506621-.8329229.3438006-1.0323263.7093622-1.9692679 1.21875-2.5683593.5221322-.6122961 1.1119899-.9726563 2.4160157-.9726563h.4375001v2.1464844l.707031-.3242188c.721097-.3301864 1.455159-.6983801 2.201172-1.1054687h.002c.738814-.4067733 1.449368-.828737 2.134766-1.2617188l.675734-.4277344-.679688-.4199218c-.68487-.425092-1.393767-.8402689-2.130859-1.2460938v-.00195h-.002c-.721244-.3941252-1.453411-.7654623-2.197219-1.1152375z" fill="#e95420"/><path d="m15.599609 3.7265625-.27539.1738281c-.685398.4329818-1.395952.8549455-2.134766 1.2617188h-.001953c-.746013.4070886-1.480075.7752823-2.201172 1.1054687l-.707031.3242188v.5l.707031-.3242188c.721097-.3301864 1.455159-.6983801 2.201172-1.1054687h.001953c.738814-.4067733 1.449368-.828737 2.134766-1.2617188l.675781-.4277344zm-15.599609.71875v.5h1.4335938c1.0374752 0 1.4035262.282352 1.8378906.9003906.2026078.288083.3865434.6718348.5605468 1.1113281l.3535157.8984376c.0309189-.0922607.0625483-.1722052.09375-.265625l-.4472657-1.1328126c-.1740034-.4394933-.357939-.8232451-.5605468-1.1113281-.4343644-.6180386-.8004154-.9003906-1.8378906-.9003906zm9.8417969 0c-1.3040258 0-1.8938835.3603601-2.4160157.9726563-.5093877.5990913-.8749494 1.536033-1.21875 2.5683593 0 0 .0826344.1494385.1113282.2050781.3138954-.9074415.6499286-1.7353793 1.1074218-2.2734374.5221322-.6122962 1.1119899-.9726563 2.4160157-.9726563h.4375001v-.5zm-4.5507813 5.7968755-.4394531.884765c-.6954203.989999-1.8564814 1.724609-3.4179687 1.724609h-1.4335938v.5h1.4335938c1.5614873 0 2.7225484-.73461 3.4179687-1.724609l.4394531-.884765.1367188.224609c.1531302.250213.3249741.497558.5253906.732422.83668.983097 2.1400584 1.652344 3.8886719 1.652343h.4375001v-.5h-.4375001c-1.7486135.000001-3.0519919-.669246-3.8886719-1.652343-.2004165-.234864-.3722604-.482209-.5253906-.732422zm10.3085934 1.892578-.27539.173828c-.685398.432982-1.395952.854946-2.134766 1.261718h-.001953c-.746012.407087-1.480074.775283-2.201172 1.105469l-.707031.324219v.5l.707031-.324219c.721098-.330186 1.45516-.698382 2.201172-1.105469h.001953c.738814-.406772 1.449368-.828736 2.134766-1.261718l.675781-.427735z" fill="#090909" opacity=".2"/><path d="m10.277344.85351562v.49999998l.71289.3359375c.743808.3497752 1.476022.7211092 2.197266 1.1152344h.001953v.0019531c.737092.4058249 1.445989.8210018 2.130859 1.2460938l.279297.1738281.400391-.2539063-.679688-.4199218c-.68487-.425092-1.393767-.8402689-2.130859-1.2460938v-.0019531h-.001953c-.721244-.3941252-1.453458-.7654592-2.197266-1.1152344zm-10.277344 2.15624998v.5h1.4335938c1.5608729 0 2.7216444.7369225 3.4179687 1.7246094l.0019531.0019531.0039063.0039063c.1460491.2134338.2772176.4355337.3945312.6660156l.1171875.2285156.5839844-.9707031c.8373608-.9826704 2.1400585-1.6542969 3.8886719-1.6542969h.4355471v-.5h-.4355471c-1.7486134 0-3.0513111.6716265-3.8886719 1.6542969l-.5839844.9707031-.1171875-.2285156c-.1173136-.2304819-.2484821-.4525818-.3945312-.6660156l-.0039063-.0039063-.0019531-.0019531c-.6963243-.9876869-1.8570958-1.7246094-3.4179687-1.7246094zm4.1855469 5.3457032c-.2876188.8582402-.5664853 1.6665442-.9140625 2.1601562-.4333287.617741-.7993846.902344-1.8378906.902344h-1.4335938v.5h1.4335938c1.038506 0 1.4045619-.284603 1.8378906-.902344.3849417-.546676.6863619-1.4633384 1.0078125-2.4257812zm2.1328125.3359374c-.035606.1029334-.076303.1897522-.1113282.2949219 0 0 .2869043.5624633.4511719.8320313.2364341.3879946.5160626.8315236.7675781 1.1269526.5221321.612297 1.1119897.972657 2.4160157.972657h.4355471v-.5h-.4355471c-1.304026 0-1.8938836-.36036-2.4160157-.972657-.2515155-.295429-.531144-.7389574-.7675781-1.1269526-.1237688-.2031084-.2521523-.4569117-.3398437-.6269532zm3.9589846.5703126v.5l.71289.3359372c.743808.349776 1.476022.721112 2.197266 1.115235h.001953c.737092.405824 1.445989.822955 2.130859 1.248047l.279297.173828.400391-.253907-.679688-.419921c-.68487-.425092-1.393767-.842223-2.130859-1.248047h-.001953c-.721244-.394123-1.453458-.7654591-2.197266-1.1152348z" fill="#fff" opacity=".3"/></svg>

<?xml version="1.0" encoding="UTF-8" standalone="no"?>
<svg
   xmlns:dc="http://purl.org/dc/elements/1.1/"
   xmlns:cc="http://creativecommons.org/ns#"
   xmlns:rdf="http://www.w3.org/1999/02/22-rdf-syntax-ns#"
   xmlns:svg="http://www.w3.org/2000/svg"
   xmlns="http://www.w3.org/2000/svg"
   xmlns:sodipodi="http://sodipodi.sourceforge.net/DTD/sodipodi-0.dtd"
   xmlns:inkscape="http://www.inkscape.org/namespaces/inkscape"
   height="16"
   width="16"
   version="1.1"
   id="svg4"
   sodipodi:docname="media-playlist-shuffle.svg"
   inkscape:version="0.92.4 (5da689c313, 2019-01-14)">
  <metadata
     id="metadata10">
    <rdf:RDF>
      <cc:Work
         rdf:about="">
        <dc:format>image/svg+xml</dc:format>
        <dc:type
           rdf:resource="http://purl.org/dc/dcmitype/StillImage" />
      </cc:Work>
    </rdf:RDF>
  </metadata>
  <defs
     id="defs8">
    <style
       id="current-color-scheme"
       type="text/css">
   .ColorScheme-Text { color:#808080; } .ColorScheme-Highlight { color:#1d99f3; }
  </style>
    <style
       type="text/css"
       id="current-color-scheme-6">
   .ColorScheme-Text { color:#808080; }
  </style>
    <linearGradient
       gradientUnits="userSpaceOnUse"
       gradientTransform="matrix(.36857 0 0 .36857 -.84577 -.84577)"
       y2="3.0816"
       y1="44.98"
       x2="18.379"
       x1="18.379"
       id="linearGradient2484">
      <stop
         offset="0"
         style="stop-color:#791235"
         id="stop2492" />
      <stop
         offset="1"
         style="stop-color:#dd3b27"
         id="stop2494" />
    </linearGradient>
    <radialGradient
       gradientUnits="userSpaceOnUse"
       gradientTransform="matrix(0 .87966 -1.1611 0 12.633 -21.084)"
       r="20.397"
       cy="3.99"
       cx="23.896"
       id="radialGradient2482">
      <stop
         offset="0"
         style="stop-color:#f8b17e"
         id="stop3244" />
      <stop
         offset=".26238"
         style="stop-color:#e35d4f"
         id="stop3246" />
      <stop
         offset=".66094"
         style="stop-color:#c6262e"
         id="stop3248" />
      <stop
         offset="1"
         style="stop-color:#690b54"
         id="stop3250" />
    </radialGradient>
    <linearGradient
       gradientUnits="userSpaceOnUse"
       gradientTransform="matrix(.74324 0 0 .74322 -38.23 10.609)"
       y2="5.4676"
       y1="-12.489"
       x2="63.397"
       x1="63.397"
       id="linearGradient2479">
      <stop
         offset="0"
         style="stop-color:#fff"
         id="stop4875" />
      <stop
         offset="1"
         style="stop-color:#fff;stop-opacity:0"
         id="stop4877" />
    </linearGradient>
    <linearGradient
       gradientUnits="userSpaceOnUse"
       gradientTransform="matrix(.66608 0 0 .76587 -.5708 -.5708)"
       y2="10.936"
       y1="10.936"
       x2="18.678"
       x1="7.8322"
       id="linearGradient2476">
      <stop
         offset="0"
         style="stop-color:#fff"
         id="stop2434" />
      <stop
         offset="1"
         style="stop-color:#fff;stop-opacity:0"
         id="stop2436" />
    </linearGradient>
  </defs>
  <sodipodi:namedview
     pagecolor="#ffffff"
     bordercolor="#666666"
     borderopacity="1"
     objecttolerance="10"
     gridtolerance="10"
     guidetolerance="10"
     inkscape:pageopacity="0"
     inkscape:pageshadow="2"
     inkscape:window-width="1920"
     inkscape:window-height="1016"
     id="namedview6"
     showgrid="false"
     inkscape:zoom="59.928571"
     inkscape:cx="7.7910001"
     inkscape:cy="6.6650775"
     inkscape:window-x="0"
     inkscape:window-y="27"
     inkscape:window-maximized="1"
     inkscape:current-layer="svg4" />
  <path
     style="color:#000000;font-style:normal;font-variant:normal;font-weight:normal;font-stretch:normal;font-size:medium;line-height:normal;font-family:sans-serif;font-variant-ligatures:normal;font-variant-position:normal;font-variant-caps:normal;font-variant-numeric:normal;font-variant-alternates:normal;font-feature-settings:normal;text-indent:0;text-align:start;text-decoration:none;text-decoration-line:none;text-decoration-style:solid;text-decoration-color:#000000;letter-spacing:normal;word-spacing:normal;text-transform:none;writing-mode:lr-tb;direction:ltr;text-orientation:mixed;dominant-baseline:auto;baseline-shift:baseline;text-anchor:start;white-space:normal;shape-padding:0;clip-rule:nonzero;display:inline;overflow:visible;visibility:visible;opacity:1;isolation:auto;mix-blend-mode:normal;color-interpolation:sRGB;color-interpolation-filters:linearRGB;solid-color:#000000;solid-opacity:1;vector-effect:none;fill:#e95420;fill-opacity:1;fill-rule:nonzero;stroke:none;stroke-width:1.00044596;stroke-linecap:butt;stroke-linejoin:miter;stroke-miterlimit:4;stroke-dasharray:none;stroke-dashoffset:0;stroke-opacity:1;color-rendering:auto;image-rendering:auto;shape-rendering:auto;text-rendering:auto;enable-background:accumulate"
     d="M 10.277344,0.85351562 V 1.640625 3.0097656 H 9.8417969 c -1.7486134,0 -3.0513111,0.6716265 -3.8886719,1.6542969 C 5.3691406,5.6347656 5.3691406,5.6347656 5.3691406,5.6347656 L 5.2519531,5.40625 C 5.1346395,5.1757681 5.003471,4.9536682 4.8574219,4.7402344 l -0.00391,-0.00391 -0.00195,-0.00195 C 4.1552376,3.7466875 2.9944668,3.0097656 1.4335938,3.0097656 H 0 v 0.5 1.4355469 h 1.4335938 c 1.0374752,0 1.4035262,0.282352 1.8378906,0.9003906 0.2026078,0.288083 0.3865434,0.6718348 0.5605468,1.1113281 L 4.2792969,8.0898438 C 3.9578463,9.0522867 3.6564261,9.9689493 3.2714844,10.515625 2.8381557,11.133366 2.4720999,11.417969 1.4335938,11.417969 H 0 v 1.933593 h 1.4335938 c 1.5614873,0 2.7225484,-0.73461 3.4179687,-1.724609 0.4394531,-0.884765 0.4394531,-0.884765 0.4394531,-0.884765 l 0.1367188,0.224609 c 0.1531302,0.250213 0.3249741,0.497558 0.5253906,0.732422 0.83668,0.983097 2.1400584,1.652343 3.8886719,1.652343 H 10.279297 V 15.5 l 0.707031,-0.324219 c 0.721098,-0.330186 1.45516,-0.698382 2.201172,-1.105469 h 0.002 c 0.738814,-0.406773 1.449368,-0.828736 2.134766,-1.261718 L 16,12.380859 15.320312,11.960938 c -0.68487,-0.425092 -1.393767,-0.842223 -2.130859,-1.248047 h -0.002 C 12.466209,10.318768 11.734042,9.9474318 10.990234,9.5976562 L 10.277344,9.2617188 V 11.417969 H 9.8417969 c -1.304026,0 -1.8938836,-0.36036 -2.4160157,-0.972657 C 7.1742657,10.149882 6.8941274,9.7072462 6.6576933,9.319251 6.4934257,9.049683 6.2070312,8.4863281 6.2070312,8.4863281 v 0 C 6.5508318,7.4540018 6.9163934,6.5170602 7.4257812,5.9179688 7.9479134,5.3056727 8.5377711,4.9453125 9.8417969,4.9453125 H 10.279297 V 7.0917969 L 10.986328,6.7675781 C 11.707425,6.4373917 12.441487,6.069198 13.1875,5.6621094 h 0.002 c 0.738814,-0.4067733 1.449368,-0.828737 2.134766,-1.2617188 L 16,3.9726562 15.320312,3.5527344 C 14.635442,3.1276424 13.926545,2.7124655 13.189453,2.3066406 v -0.00195 h -0.002 C 12.466209,1.9105654 11.734042,1.5392283 10.990234,1.1894531 Z"
     id="path2"
     inkscape:connector-curvature="0"
     sodipodi:nodetypes="cccsccccccscccsccccsccsccccscccccccccccccscacccsccccccccccccc" />
  <path
     style="color:#000000;font-style:normal;font-variant:normal;font-weight:normal;font-stretch:normal;font-size:medium;line-height:normal;font-family:sans-serif;font-variant-ligatures:normal;font-variant-position:normal;font-variant-caps:normal;font-variant-numeric:normal;font-variant-alternates:normal;font-feature-settings:normal;text-indent:0;text-align:start;text-decoration:none;text-decoration-line:none;text-decoration-style:solid;text-decoration-color:#000000;letter-spacing:normal;word-spacing:normal;text-transform:none;writing-mode:lr-tb;direction:ltr;text-orientation:mixed;dominant-baseline:auto;baseline-shift:baseline;text-anchor:start;white-space:normal;shape-padding:0;clip-rule:nonzero;display:inline;overflow:visible;visibility:visible;opacity:0.2;isolation:auto;mix-blend-mode:normal;color-interpolation:sRGB;color-interpolation-filters:linearRGB;solid-color:#000000;solid-opacity:1;vector-effect:none;fill:#090909;fill-opacity:1;fill-rule:nonzero;stroke:none;stroke-width:1.00044596;stroke-linecap:butt;stroke-linejoin:miter;stroke-miterlimit:4;stroke-dasharray:none;stroke-dashoffset:0;stroke-opacity:1;color-rendering:auto;image-rendering:auto;shape-rendering:auto;text-rendering:auto;enable-background:accumulate"
     d="M 15.599609 3.7265625 L 15.324219 3.9003906 C 14.638821 4.3333724 13.928267 4.7553361 13.189453 5.1621094 L 13.1875 5.1621094 C 12.441487 5.569198 11.707425 5.9373917 10.986328 6.2675781 L 10.279297 6.5917969 L 10.279297 7.0917969 L 10.986328 6.7675781 C 11.707425 6.4373917 12.441487 6.069198 13.1875 5.6621094 L 13.189453 5.6621094 C 13.928267 5.2553361 14.638821 4.8333724 15.324219 4.4003906 L 16 3.9726562 L 15.599609 3.7265625 z M 0 4.4453125 L 0 4.9453125 L 1.4335938 4.9453125 C 2.471069 4.9453125 2.83712 5.2276645 3.2714844 5.8457031 C 3.4740922 6.1337861 3.6580278 6.5175379 3.8320312 6.9570312 L 4.1855469 7.8554688 C 4.2164658 7.7632081 4.2480952 7.6832636 4.2792969 7.5898438 L 3.8320312 6.4570312 C 3.6580278 6.0175379 3.4740922 5.6337861 3.2714844 5.3457031 C 2.83712 4.7276645 2.471069 4.4453125 1.4335938 4.4453125 L 0 4.4453125 z M 9.8417969 4.4453125 C 8.5377711 4.4453125 7.9479134 4.8056726 7.4257812 5.4179688 C 6.9163935 6.0170601 6.5508318 6.9540018 6.2070312 7.9863281 C 6.2070312 7.9863281 6.2896656 8.1357666 6.3183594 8.1914062 C 6.6322548 7.2839647 6.968288 6.4560269 7.4257812 5.9179688 C 7.9479134 5.3056726 8.5377711 4.9453125 9.8417969 4.9453125 L 10.279297 4.9453125 L 10.279297 4.4453125 L 9.8417969 4.4453125 z M 5.2910156 10.242188 L 4.8515625 11.126953 C 4.1561422 12.116952 2.9950811 12.851562 1.4335938 12.851562 L 0 12.851562 L 0 13.351562 L 1.4335938 13.351562 C 2.9950811 13.351562 4.1561422 12.616952 4.8515625 11.626953 L 5.2910156 10.742188 L 5.4277344 10.966797 C 5.5808646 11.21701 5.7527085 11.464355 5.953125 11.699219 C 6.789805 12.682316 8.0931834 13.351563 9.8417969 13.351562 L 10.279297 13.351562 L 10.279297 12.851562 L 9.8417969 12.851562 C 8.0931834 12.851563 6.789805 12.182316 5.953125 11.199219 C 5.7527085 10.964355 5.5808646 10.71701 5.4277344 10.466797 L 5.2910156 10.242188 z M 15.599609 12.134766 L 15.324219 12.308594 C 14.638821 12.741576 13.928267 13.16354 13.189453 13.570312 L 13.1875 13.570312 C 12.441488 13.977399 11.707426 14.345595 10.986328 14.675781 L 10.279297 15 L 10.279297 15.5 L 10.986328 15.175781 C 11.707426 14.845595 12.441488 14.477399 13.1875 14.070312 L 13.189453 14.070312 C 13.928267 13.66354 14.638821 13.241576 15.324219 12.808594 L 16 12.380859 L 15.599609 12.134766 z "
     id="path832" />
  <path
     style="color:#000000;font-style:normal;font-variant:normal;font-weight:normal;font-stretch:normal;font-size:medium;line-height:normal;font-family:sans-serif;font-variant-ligatures:normal;font-variant-position:normal;font-variant-caps:normal;font-variant-numeric:normal;font-variant-alternates:normal;font-feature-settings:normal;text-indent:0;text-align:start;text-decoration:none;text-decoration-line:none;text-decoration-style:solid;text-decoration-color:#000000;letter-spacing:normal;word-spacing:normal;text-transform:none;writing-mode:lr-tb;direction:ltr;text-orientation:mixed;dominant-baseline:auto;baseline-shift:baseline;text-anchor:start;white-space:normal;shape-padding:0;clip-rule:nonzero;display:inline;overflow:visible;visibility:visible;opacity:0.3;isolation:auto;mix-blend-mode:normal;color-interpolation:sRGB;color-interpolation-filters:linearRGB;solid-color:#000000;solid-opacity:1;vector-effect:none;fill:#ffffff;fill-opacity:1;fill-rule:nonzero;stroke:none;stroke-width:1.00044596;stroke-linecap:butt;stroke-linejoin:miter;stroke-miterlimit:4;stroke-dasharray:none;stroke-dashoffset:0;stroke-opacity:1;color-rendering:auto;image-rendering:auto;shape-rendering:auto;text-rendering:auto;enable-background:accumulate"
     d="M 10.277344 0.85351562 L 10.277344 1.3535156 L 10.990234 1.6894531 C 11.734042 2.0392283 12.466256 2.4105623 13.1875 2.8046875 L 13.189453 2.8046875 L 13.189453 2.8066406 C 13.926545 3.2124655 14.635442 3.6276424 15.320312 4.0527344 L 15.599609 4.2265625 L 16 3.9726562 L 15.320312 3.5527344 C 14.635442 3.1276424 13.926545 2.7124655 13.189453 2.3066406 L 13.189453 2.3046875 L 13.1875 2.3046875 C 12.466256 1.9105623 11.734042 1.5392283 10.990234 1.1894531 L 10.277344 0.85351562 z M 0 3.0097656 L 0 3.5097656 L 1.4335938 3.5097656 C 2.9944667 3.5097656 4.1552382 4.2466881 4.8515625 5.234375 L 4.8535156 5.2363281 L 4.8574219 5.2402344 C 5.003471 5.4536682 5.1346395 5.6757681 5.2519531 5.90625 L 5.3691406 6.1347656 L 5.953125 5.1640625 C 6.7904858 4.1813921 8.0931835 3.5097656 9.8417969 3.5097656 L 10.277344 3.5097656 L 10.277344 3.0097656 L 9.8417969 3.0097656 C 8.0931835 3.0097656 6.7904858 3.6813921 5.953125 4.6640625 L 5.3691406 5.6347656 L 5.2519531 5.40625 C 5.1346395 5.1757681 5.003471 4.9536682 4.8574219 4.7402344 L 4.8535156 4.7363281 L 4.8515625 4.734375 C 4.1552382 3.7466881 2.9944667 3.0097656 1.4335938 3.0097656 L 0 3.0097656 z M 4.1855469 8.3554688 C 3.8979281 9.213709 3.6190616 10.022013 3.2714844 10.515625 C 2.8381557 11.133366 2.4720998 11.417969 1.4335938 11.417969 L 0 11.417969 L 0 11.917969 L 1.4335938 11.917969 C 2.4720998 11.917969 2.8381557 11.633366 3.2714844 11.015625 C 3.6564261 10.468949 3.9578463 9.5522866 4.2792969 8.5898438 L 4.1855469 8.3554688 z M 6.3183594 8.6914062 C 6.2827534 8.7943396 6.2420564 8.8811584 6.2070312 8.9863281 C 6.2070312 8.9863281 6.4939355 9.5487914 6.6582031 9.8183594 C 6.8946372 10.206354 7.1742657 10.649883 7.4257812 10.945312 C 7.9479133 11.557609 8.5377709 11.917969 9.8417969 11.917969 L 10.277344 11.917969 L 10.277344 11.417969 L 9.8417969 11.417969 C 8.5377709 11.417969 7.9479133 11.057609 7.4257812 10.445312 C 7.1742657 10.149883 6.8946372 9.7063546 6.6582031 9.3183594 C 6.5344343 9.115251 6.4060508 8.8614477 6.3183594 8.6914062 z M 10.277344 9.2617188 L 10.277344 9.7617188 L 10.990234 10.097656 C 11.734042 10.447432 12.466256 10.818768 13.1875 11.212891 L 13.189453 11.212891 C 13.926545 11.618715 14.635442 12.035846 15.320312 12.460938 L 15.599609 12.634766 L 16 12.380859 L 15.320312 11.960938 C 14.635442 11.535846 13.926545 11.118715 13.189453 10.712891 L 13.1875 10.712891 C 12.466256 10.318768 11.734042 9.9474319 10.990234 9.5976562 L 10.277344 9.2617188 z "
     id="path836" />
</svg>
